X:1-1
T:Praeludium I
Q:"Andante"
M:3/4
L:1/4
%%staves {(1 2) (3 4)}
%%linebreak $
K:Gm
%%writefields Q 0
Q:1/4=80
V:1 treble
d/G^Fe/|d/GA^f/|g3/d3/-|d/f/e/d/c/^c/|\
	d/!tie)!BAe/|d/!tie2)!BAe/|d3/d/c/B/|
V:2
x3|x3|g/BAG/-|G2A|!tie(!B/DEA/|!tie2(!B/DEA/|B/D/E2-|
V:3 bass
B,A,C|B,CE|DCB,|=B,CE|F,_G,C|F,_G,C|B,=G,/B,/A,/G,/-|
V:4
G,3|G,3|G,3|E,2F,|B,,3|B,,3|B,,C,2|
V:1
A3|d/G^Fe/|d/GA^f/|g/B=B_a/-af/d/B/_A/|\
	G/ED_A/|G/ED_c/|B/EFG/|
V:2
E/EDC/|B,x2|x3|x3/=B3/-|_c/_B/x2|x3|x3|x3|
V:3
G,^F,=E,/F,/|G,A,C|B,CE|DDE|Fxx|B,F,_E,|\
		%? &x/_A,2x/
		B,F,_A,|G,3|
V:4
D,3|G,,G,2-|G,G,2-|G,F,E,|D,zz|E,3|E,3|E,D,_D,|
V:1
=E/_dcB/|_A/CGF/|E/_A,DC/|=B,/G,^F,E/|D/G,=A,^F/|\
		G/=B,_A3/-|A2G/F/|E/edc/-|c/BAG/|
V:2
=E3|z/C/-C2|z/_A,/-A,2|x3|x3|z/=B,/-B,3/C/-|C/DE/- E/D/|E3|x3|
V:3
B,_A,G,|F,E,D,|G,F,E,|D,=A,,C,|=B,,C,E,|D,=F,E,|D,C,G,-|G,B,=A,|DCB,|
V:4
C,3|F,,3-|F,,3|G,,3-|G,,3|G,,3-|G,,2=B,,|C,3|=A,,3|
V:1
^F/d^cg/|^f/!tie)!d=B=f/|=e/!tie2)!cA_e/|d3/^c=c/|\
	BcA|Bce|d^fg-|g/=B/c/d/e/f/|
V:2
^F3/G^c/|!tie(!d/^F=F=B/|!tie2(!c/=E_EA/-|A/G-G^F/|GAC|\
	G^Fc|BcB|G2=A|
V:3
A,B,E|D_A,D|C^F,C|B,=E_E|D/G,^F,E/|\
	D/G,A,^F/|G3/D3/-|D/F/E/D/C|
V:4
D,3-|D,3|D,3-|D,3G,,3|G,,3|G,/B,A,G,/|E,2F,|
V:1
dec|dec|B3/B/A/=G/|^F3/GA/|d/_A2c/|=B3/cg/|f3/ed/|_a3/gf/|e3/dc/|
V:2
Bc_G|Fc_G|z/F/E2|^F/D^C=C/|=B,/FE_A/-|\
	A/GAc/-|c/=B/-B2|_a/=B/-B2|e/G/-G2|
V:3
D/B,A,E/|D/B,A,E/|D3/D/C/B,/|A,2D,-|D,CE|DE_A-|AGF-|FED|CDE|
V:4
B,,3/_G,A,/|B,,3/_G,A,/|B,,C,2|D,=E,^F,,|G,,G,2-|G,G,2-|G,3|G,3|C,B,,A,,|
V:1
c3/BA/|G3-|G^F2|G/G,^F,E/|D/G,A,^F/|G/B,^Fc/|\
	B/!tie)!G^Fe/-|ed^f|Hg3|]
V:2
G/CDE/-|E/E/D/^C/=C/B,/|A,/EDC/|B,x2|x3|x3/C^F/|!tie(!G/B,C^F/-|FGc|B3|]
V:3
F,3|G,/C/B,/A,/- A,/G,/-|G,D,2|G,,A,,C,|B,,C,E,|D,E,A,|G,A,C-|CB,[EA]|[DG]3|]
V:4
E,D,C,|D,2_E,/D,/|C,D,2|G,,3-|G,,3|G,,3-|G,,G,,2|G,3-|G,3|]

